X: 11147
T: Dúlamán Na Binne Buí
R: hornpipe
M: 4/4
K: Amixolydian
|:eAcA eAcA|eAcA dBGB|eAcA eAcA|1 (3Bcd GB (3ABA Aa:|2 (3Bcd GB (3ABA (3Bcd||
|:eaa^g eAcA|efge dBGB|eaa^g eAcA|1 (3Bcd GB (3ABA Ac:|2 (3Bcd GB (3ABA Aa||

